X: 07
T: JAMES FORRESTER RANKINE
C: Andrew Rankine
R: reel
N: Original tune for Dance of the Diamones
B: "The Complete Andrew Rankine Collection of Scottish Country Dance Tunes" p.10
Z: 2017 John Chambers <jc:trillian.mit.edu>
M: 2/4
L: 1/16
K: C
G2 |\
"C"C2E2 GAGE | c2E2 GAGE |\
C2E2 GAGE | GAGE cGEC |\
"F7"B,2D2 FGFD | B2D2 FGFD |
B,A,B,C DCDE | FEFG AGAB ||\
"C"c2e2 gage | c'2e2 gage |\
c2e2 gage | gage c'gec |
"G7"B2d2 fgfe | b2d2 fef^f |\
g^fg^g agab | "C"c'2"F"c'2 "C"c'2 \
|: _B2 |\
"F"A2f2 fgfd | "C"e2c2 cdcA |
"G7"G2B2 BcBA | "C"G^FGc "C7"edc_B |\
"F"A2f2 fgfd | "C"e2c2 cdcA |\
"G7"G^FG^G AGAB | "C"c2"F"c2 "C"c2 :|

%%sep 1 1 500

